X:1
T:Title
%%score { ( 1 3 ) | ( 2 4 ) }
L:1/8
M:6/8
K:F
V:1 treble nm="Grand Piano"
V:3 treble 
V:2 bass 
V:4 bass 
V:1
 z3 z2[Q:1/4=87] c | c2 A A2 C | D2 [DF] [DF]2 D | C2 F A2 A |[M:5/8] [EG]-[EG]- [EG]3 | %5
[M:1/8] [Ec] |[M:3/4] c2 A A2 C | D2 [DF] [DF]2 [DFG] | [CFA]2 [CFA] [CEA]2 [B,EG] | %9
[M:5/8] [A,F]-[A,F]- [A,F]3 |[M:1/8] [EG] |[M:3/4] [EG]2 [FA] [GB]2 [Bd] | [Bd]2 [Ac] [Ac]2 c | %13
 =B2 c e2 d |[M:5/8] [Ec]-[Ec]- [Ec]3 |[M:1/8] c |[M:3/4] [Af]2 [Ac] [Ac]2 [CFA] | %17
[M:15/16] [CEG]->[CEG][CFA] [DFB]3 [Fd]3/2 |[M:3/4] [Fc] [FA]2 [EA]2 [EG] |[M:5/8] F-F- F3 | %20
[M:1/8] c |[M:3/4] c A2 F2 G | A4- AA | A c2 A2 A |[M:5/8] [EG]-[EG]- [EG]3 |[M:1/8] [EG] | %26
[M:3/4] A2 A B2 B |[M:15/16] c->cc d3 [Fd]3/2 |[M:3/4] [Fc] [FA]2 [EA]2 [EG] |[M:5/8] F-F- F3 |] %30
V:2
 z3 z2 [F,A,F] | [F,A,F]2 [F,CF] [F,CF]2 [F,A,] | [B,,F,B,]2 [B,,B,] [B,,B,]2 [B,,F,B,] | %3
 [F,A,]2 [F,A,C] [F,CF]2 [F,CF] |[M:5/8] [C,C]-[C,C]- [C,C]3 |[M:1/8] [C,B,] | %6
[M:3/4] [F,A,F]2 [F,CF] [F,CF]2 [F,A,] | [B,,F,B,]2 [B,,B,] [B,,B,]2 B,, | C,2 C, C,2 C, | %9
[M:5/8] F,-F,- F,3 |[M:1/8] [C,C] |[M:3/4] [C,C]2 [C,C] [C,C]2 [C,C] | %12
 [F,C]2 [F,C] [F,C]2[K:treble] [F,A,F] | [G,F]2 [G,E] [G,CG]2[K:bass] [G,,=B,F] |[M:5/8] C3 z2 | %15
[M:1/8] [F,A,F] |[M:3/4] [F,C]2 [F,F] [F,F]2 F, |[M:15/16] C,->C,F, B,,3 [B,,B,]3/2 | %18
[M:3/4] [C,A,] [C,C]2 [C,C]2 [C,B,] |[M:5/8] [F,A,]-[F,A,]- [F,A,]3 |[M:1/8] [F,A,F] | %21
[M:3/4] [F,A,F] [F,CF]2 [F,A,C]2 [F,B,C] | [F,CF]4- [F,CF][F,CF] | [F,CF] [F,A,F]2 [F,CF]2 [F,CF] | %24
[M:5/8] [C,C]-[C,C]- [C,C]3 |[M:1/8] [C,C] |[M:3/4][K:treble] [F,CF]2 [F,CF] [G,CE]2 [G,CE] | %27
[M:15/16] [A,CF]->[A,CF][A,_EF] [B,DF]3[K:bass] [B,,B,]3/2 |[M:3/4] [C,A,] [C,C]2 [C,C]2 [C,B,] | %29
[M:5/8] [F,A,]-[F,A,]- [F,A,]3 |] %30
V:3
 x6 | x6 | x6 | x6 |[M:5/8] x5 |[M:1/8] x |[M:3/4] x6 | x6 | x6 |[M:5/8] x5 |[M:1/8] x | %11
[M:3/4] x6 | x6 | x6 |[M:5/8] z z2 B,2 |[M:1/8] x |[M:3/4] x6 |[M:15/16] x15/2 |[M:3/4] x6 | %19
[M:5/8] x5 |[M:1/8] x |[M:3/4] x6 | x6 | x6 |[M:5/8] x5 |[M:1/8] x |[M:3/4] x6 |[M:15/16] x15/2 | %28
[M:3/4] x6 |[M:5/8] x5 |] %30
V:4
 x6 | x6 | x6 | x6 |[M:5/8] x5 |[M:1/8] x |[M:3/4] x6 | x6 | x6 |[M:5/8] x5 |[M:1/8] x | %11
[M:3/4] x6 | x5[K:treble] x | x5[K:bass] x |[M:5/8] C,-C,- C,3 |[M:1/8] x |[M:3/4] x6 | %17
[M:15/16] x15/2 |[M:3/4] x6 |[M:5/8] x5 |[M:1/8] x |[M:3/4] x6 | x6 | x6 |[M:5/8] x5 |[M:1/8] x | %26
[M:3/4][K:treble] x6 |[M:15/16] x6[K:bass] x3/2 |[M:3/4] x6 |[M:5/8] x5 |] %30

